X:1
T:Ferial, LM
T:Sarum melody
T:Ferial, LM
T:Public Domain
C:Sarum melody
Z:Public Domain
%%score ( 1 2 ) ( 3 4 )
L:1/8
M:4/4
K:G
V:1 treble 
V:2 treble 
V:3 bass 
V:4 bass 
V:1
 [B,G]2 x6 | [EG]2 [CA]2 [B,B]2 [DG]2 | [EA]3 [EG] [DF]2 [DA]2 | [DG]2 [EG]2 [DF]2 (CD) | %4
 [DG]2 [CA]2 [B,G]2 [B,G]2 | [B,G]2 [DA]2 [DB]2 [DG]2 | D2 z G [DF]2 [FA]2 | [EG]2 [DG]2 [CF]2 E2 | %8
 [EG]2 [^DF]2 E2 |] %9
V:2
 x8 | x8 | x8 | x6 E2 | x8 | x8 | A3 ^C2 x3 | x6 E2 | x4 E2 |] %9
V:3
 [G,,G,]2 [C,G,]2 [A,,F,]2 [G,,G,]2 | [B,,G,]2 [C,C]3 [C,B,] [D,A,]2 | %2
 [F,A,]2 [G,B,]2 [C,C]2 [D,A,]2 | [E,G,]2 [D,B,]2 [D,F,]2 [G,,G,]2 | %4
 (G,F,) [E,G,]2 (G,F,) [G,,G,]2 | [B,,G,]2 F,2 z A,, [D,A,]2 | [^D,B,]2 [E,B,]2 [G,,B,]2 (A,,B,,) | %7
 [C,A,]2 [B,,B,]2 [B,,B,]2 [E,G,]2 | x6 |] %9
V:4
 x8 | x8 | x8 | x8 | G,2 x D,2 x3 | x2 A,,3 A,2 x | x6 A,2 | x8 | x6 |] %9

